TH2/hard_cont.svg

<svg xmlns="http://www.w3.org/2000/svg" viewBox="0 0 1200 800" preserveAspectRatio="none" width="1200" height="800">
 <path d="M0,0H1200V800H0Z" style="fill: white;"></path>
 <g>
  <g transform="translate(120,80)">
   <path d="M0,0H960V640H0Z" style="fill: white; stroke: black; stroke-width: 1;"></path>
   <svg x="0" y="0" overflow="hidden" width="960" height="640" viewBox="0 0 960 640">
    <g>
     <path d="M108,13l12,25l6,26l6,26l2,9l15,16l13,26l11,24l2,1l23,26l13,18l10,8l25,25l4,4l30,22l8,5l32,20l6,4l39,18l7,4l31,11l33,15l6,1l38,11l36,13l2,1l39,7l38,8l30,10l9,1l38,5l38,6l39,7l25,6l13,2l39,3l38,4l38,4l39,5L960,442L960,640L0,640L0,0L102,0z" style="fill: #2db6a5;"></path>
     <path d="M941,386l-39,-5l-34,-10h-4l-38,-4l-39,-4l-38,-7l-33,-10l-6,-1l-38,-6l-38,-7l-32,-12l-7,-1l-38,-8l-39,-14l-5,-3l-33,-8l-37,-17l-1,-1l-39,-13l-20,-12l-18,-8l-29,-17l-10,-6l-29,-20l-9,-7l-24,-19l-14,-14l-14,-11l-21,-26l-4,-5l-21,-20l-13,-26l-4,-9l-17,-17l-12,-25L138,0L960,0L960,388z" style="fill: #2db6a5;"></path>
     <path d="M43,13l2,25l4,26l3,26l5,25l1,7l5,19l7,25l8,26l9,26l9,24l1,1l14,26l17,25l6,9l15,17l24,25l1,1l32,25l5,3l38,23h1l38,18l19,7l19,8l39,11l22,7l16,5l39,8l38,8l26,5l12,2l39,7l38,5l39,5l38,4l23,2l15,2l39,4l38,4l39,4l38,3l38,2l39,3L960,522L960,640L0,640L0,0L42,0z" style="fill: #f9f810;"></path>
     <path d="M941,320l-39,-6l-38,-7l-38,-8l-22,-5l-17,-3l-38,-8l-39,-9l-17,-5l-21,-5l-38,-11l-31,-10l-8,-2l-38,-13l-27,-10l-12,-5l-38,-16l-10,-5l-28,-13l-23,-13l-16,-8l-27,-17l-11,-7l-26,-19l-13,-9l-19,-16l-19,-18l-8,-8l-24,-26l-6,-8l-15,-17L224,0L960,0L960,323z" style="fill: #f9f810;"></path>
    </g>
   </svg>
   <g>
    <g transform="translate(0,640)">
     <path d="M0,0h960M0,-24v24m24,-12v12m24,-12v12m24,-12v12m24,-24v24m24,-12v12m24,-12v12m24,-12v12m24,-24v24m24,-12v12m24,-12v12m24,-12v12m24,-24v24m24,-12v12m24,-12v12m24,-12v12m24,-24v24m24,-12v12m24,-12v12m24,-12v12m24,-24v24m24,-12v12m24,-12v12m24,-12v12m24,-24v24m24,-12v12m24,-12v12m24,-12v12m24,-24v24m24,-12v12m24,-12v12m24,-12v12m24,-24v24m24,-12v12m24,-12v12m24,-12v12m24,-24v24m24,-12v12m24,-12v12m24,-12v12m24,-24v24" style="stroke: black; stroke-width: 1;"></path>
     <g font-family="Arial" font-size="15" space="preserve" fill="black" text-anchor="middle">
      <text dy=".8em" transform="translate(0,6)">
       0
      </text>
      <text dy=".8em" transform="translate(96,6)">
       0.02
      </text>
      <text dy=".8em" transform="translate(192,6)">
       0.04
      </text>
      <text dy=".8em" transform="translate(288,6)">
       0.06
      </text>
      <text dy=".8em" transform="translate(384,6)">
       0.08
      </text>
      <text dy=".8em" transform="translate(480,6)">
       0.10
      </text>
      <text dy=".8em" transform="translate(576,6)">
       0.12
      </text>
      <text dy=".8em" transform="translate(672,6)">
       0.14
      </text>
      <text dy=".8em" transform="translate(768,6)">
       0.16
      </text>
      <text dy=".8em" transform="translate(864,6)">
       0.18
      </text>
      <text dy=".8em" transform="translate(960,6)">
       0.20
      </text>
     </g>
     <g font-family="Arial" font-size="20" space="preserve" transform="translate(480,32)">
      <g transform="translate(-22,7)">
       <text fill="black" font-size="20">
        M
       </text>
       <text fill="black" font-size="12" transform="translate(18,-10)">
        2ν
       </text>
       <text fill="black" font-size="12" transform="translate(18,4)">
        GT-3
       </text>
      </g>
     </g>
    </g>
    <g>
     <path d="M0,0v640M36,640h-36m18,-27h-18m18,-26h-18m18,-27h-18m36,-27h-36m18,-26h-18m18,-27h-18m18,-27h-18m36,-26h-36m18,-27h-18m18,-27h-18m18,-26h-18m36,-27h-36m18,-27h-18m18,-26h-18m18,-27h-18m36,-27h-36m18,-26h-18m18,-27h-18m18,-27h-18m36,-26h-36m18,-27h-18m18,-27h-18m18,-26h-18m36,-27h-36" style="stroke: black; stroke-width: 1;"></path>
     <g font-family="Arial" font-size="15" space="preserve" fill="black" text-anchor="end">
      <text dy=".4em" transform="translate(-4,640)">
       0
      </text>
      <text dy=".4em" transform="translate(-4,533)">
       0.2
      </text>
      <text dy=".4em" transform="translate(-4,427)">
       0.4
      </text>
      <text dy=".4em" transform="translate(-4,320)">
       0.6
      </text>
      <text dy=".4em" transform="translate(-4,213)">
       0.8
      </text>
      <text dy=".4em" transform="translate(-4,107)">
       1
      </text>
      <text dy=".4em" transform="translate(-4)">
       1.2
      </text>
     </g>
     <g font-family="Arial" font-size="20" space="preserve" transform="translate(-48,320)">
      <g transform=" rotate(270) translate(-10,6)">
       <text fill="black" font-size="20">
        g
       </text>
       <text fill="black" font-size="12" transform="translate(11,4)">
        A
       </text>
      </g>
     </g>
    </g>
   </g>
  </g>
 </g>
</svg>

<svg xmlns="http://www.w3.org/2000/svg" viewBox="0 0 1200 800" preserveAspectRatio="none" width="1200" height="800">
 <path d="M0,0H1200V800H0Z" style="fill: white;"></path>
 <g>
  <g transform="translate(120,80)">
   <path d="M0,0H960V640H0Z" style="fill: white; stroke: black; stroke-width: 1;"></path>
   <svg x="0" y="0" overflow="hidden" width="960" height="640" viewBox="0 0 960 640">
    <g>
     <path d="M108,13l12,25l6,26l6,26l2,9l15,16l13,26l11,24l2,1l23,26l13,18l10,8l25,25l4,4l30,22l8,5l32,20l6,4l39,18l7,4l31,11l33,15l6,1l38,11l36,13l2,1l39,7l38,8l30,10l9,1l38,5l38,6l39,7l25,6l13,2l39,3l38,4l38,4l39,5L960,442L960,640L0,640L0,0L102,0z" style="fill: #2db6a5;"></path>
     <path d="M941,386l-39,-5l-34,-10h-4l-38,-4l-39,-4l-38,-7l-33,-10l-6,-1l-38,-6l-38,-7l-32,-12l-7,-1l-38,-8l-39,-14l-5,-3l-33,-8l-37,-17l-1,-1l-39,-13l-20,-12l-18,-8l-29,-17l-10,-6l-29,-20l-9,-7l-24,-19l-14,-14l-14,-11l-21,-26l-4,-5l-21,-20l-13,-26l-4,-9l-17,-17l-12,-25L138,0L960,0L960,388z" style="fill: #2db6a5;"></path>
     <path d="M43,13l2,25l4,26l3,26l5,25l1,7l5,19l7,25l8,26l9,26l9,24l1,1l14,26l17,25l6,9l15,17l24,25l1,1l32,25l5,3l38,23h1l38,18l19,7l19,8l39,11l22,7l16,5l39,8l38,8l26,5l12,2l39,7l38,5l39,5l38,4l23,2l15,2l39,4l38,4l39,4l38,3l38,2l39,3L960,522L960,640L0,640L0,0L42,0z" style="fill: #f9f810;"></path>
     <path d="M941,320l-39,-6l-38,-7l-38,-8l-22,-5l-17,-3l-38,-8l-39,-9l-17,-5l-21,-5l-38,-11l-31,-10l-8,-2l-38,-13l-27,-10l-12,-5l-38,-16l-10,-5l-28,-13l-23,-13l-16,-8l-27,-17l-11,-7l-26,-19l-13,-9l-19,-16l-19,-18l-8,-8l-24,-26l-6,-8l-15,-17L224,0L960,0L960,323z" style="fill: #f9f810;"></path>
    </g>
   </svg>
   <g>
    <g transform="translate(0,640)">
     <path d="M0,0h960M0,-24V0M24,-12V0M48,-12V0M72,-12V0M96,-24V0M120,-12V0M144,-12V0M168,-12V0M192,-24V0M216,-12V0M240,-12V0M264,-12V0M288,-24V0M312,-12V0M336,-12V0M360,-12V0M384,-24V0M408,-12V0M432,-12V0M456,-12V0M480,-24V0M504,-12V0M528,-12V0M552,-12V0M576,-24V0M600,-12V0M624,-12V0M648,-12V0M672,-24V0M696,-12V0M720,-12V0M744,-12V0M768,-24V0M792,-12V0M816,-12V0M840,-12V0M864,-24V0M888,-12V0M912,-12V0M936,-12V0M960,-24V0" style="stroke: black; stroke-width: 1;"></path>
     <g font-family="Arial" font-size="15" space="preserve" fill="black" text-anchor="middle">
      <text dy=".8em" transform="translate(0,6)">
       0
      </text>
      <text dy=".8em" transform="translate(96,6)">
       0.02
      </text>
      <text dy=".8em" transform="translate(192,6)">
       0.04
      </text>
      <text dy=".8em" transform="translate(288,6)">
       0.06
      </text>
      <text dy=".8em" transform="translate(384,6)">
       0.08
      </text>
      <text dy=".8em" transform="translate(480,6)">
       0.10
      </text>
      <text dy=".8em" transform="translate(576,6)">
       0.12
      </text>
      <text dy=".8em" transform="translate(672,6)">
       0.14
      </text>
      <text dy=".8em" transform="translate(768,6)">
       0.16
      </text>
      <text dy=".8em" transform="translate(864,6)">
       0.18
      </text>
      <text dy=".8em" transform="translate(960,6)">
       0.20
      </text>
     </g>
     <g font-family="Arial" font-size="20" space="preserve" transform="translate(480,32)">
      <g transform="translate(-22,7)">
       <text fill="black" font-size="20">
        M
       </text>
       <text fill="black" font-size="12" transform="translate(18,-10)">
        2ν
       </text>
       <text fill="black" font-size="12" transform="translate(18,4)">
        GT-3
       </text>
      </g>
     </g>
    </g>
    <g>
     <path d="M0,0v640M36,640H0M18,613H0M18,587H0M18,560H0M36,533H0M18,507H0M18,480H0M18,453H0M36,427H0M18,400H0M18,373H0M18,347H0M36,320H0M18,293H0M18,267H0M18,240H0M36,213H0M18,187H0M18,160H0M18,133H0M36,107H0M18,80H0M18,53H0M18,27H0M36,0H0" style="stroke: black; stroke-width: 1;"></path>
     <g font-family="Arial" font-size="15" space="preserve" fill="black" text-anchor="end">
      <text dy=".4em" transform="translate(-4,640)">
       0
      </text>
      <text dy=".4em" transform="translate(-4,533)">
       0.2
      </text>
      <text dy=".4em" transform="translate(-4,427)">
       0.4
      </text>
      <text dy=".4em" transform="translate(-4,320)">
       0.6
      </text>
      <text dy=".4em" transform="translate(-4,213)">
       0.8
      </text>
      <text dy=".4em" transform="translate(-4,107)">
       1
      </text>
      <text dy=".4em" transform="translate(-4)">
       1.2
      </text>
     </g>
     <g font-family="Arial" font-size="20" space="preserve" transform="translate(-48,320)">
      <g transform=" rotate(270) translate(-10,6)">
       <text fill="black" font-size="20">
        g
       </text>
       <text fill="black" font-size="12" transform="translate(11,4)">
        A
       </text>
      </g>
     </g>
    </g>
   </g>
  </g>
 </g>
</svg>
